X: 100
T:Buttermilk Mary
R:jig
O:Trad
Z:John Chambers <jc@eddie.mit.edu>
M:6/8
L:1/8
Q:3/8=120
K:A
|:A/B/|cAE FEC|EAc ecA|def edc|cBB Bed|
cea ecA|dfa ecA|edc efg|aec A2:|
|:c/d/|eaa agf|ecA Ace|fbb b2a|gee efg|
aba gag|fgf ecA|def edc|BFG A2:|
